X:1
T:Clairières dans le ciel
T:Les lilas qui avaient fleuri
T:à R. PLAMONDON
T:Clairières dans le ciel
T:Lili Boulanger
T:9. Les lilas qui avaient fleuri 
T:Francis Jammes
T:NOTE TO TRANSCRIBER: the tempo markings are only a suggestion, and should be adjusted when you have entered the piano part
T:Creative Commons copyright waiver (CC0 1.0 Universal)
T:Creative Commons copyright waiver (CC0 1.0 Universal)
T:Creative Commons copyright waiver (CC0 1.0 Universal)
T:Creative Commons copyright waiver (CC0 1.0 Universal)
C:Lili Boulanger
Z:Francis Jammes
Z:Creative Commons copyright waiver (CC0 1.0 Universal)
%%score ( 1 2 )
L:1/8
Q:1/4=100
M:4/4
K:C
V:1 treble nm="Chant\nVoice"
V:2 treble 
V:1
"^Sans lenteur" z8 |!p! z E/ E/ B4 A B | G F E2- E C C D | E4 E2 G A | B2 A B G4- | G2 F G E2 E D | %6
w: |Les li- las qui a-|\- vaient fleu- ri _ l'an- née der-|niè- re vont fleu-|rir de nou- veau|_ dans les tris- tes par-|
 E4 E2!p! z G | d4 z e e B |!<(! d2 d d!<)! f2 e f |!<(! ^f2!<)! f f!>(! (=f3!>)! f) | %10
w: ter- res. Dé-|jà le pê- cher|grêle a jon- ché le ciel|bleu de ses ro- ses,|
 z2 !tenuto!^f2 !tenuto!e2 !tenuto!e2 | _e4[Q:1/4=90][Q:1/4=80][Q:1/4=70] z d B d | %12
w: com- me‿un en-|fant la Fê- te-|
!pp![Q:1/4=100]"^a tempo" =e8 | z4 z2"^plus intense" z!mf! (B || %14
w: Dieu.|Mon|
[M:3/4][Q:1/4=115]"^Plus animé" e3 d ^f !tenuto!f | g2 ^f2 d2 | e2 d2 ^f2 |!>(! e4!>)! B2) | %18
w: cœur de- vrait mou-|rir au mi-|lieu de ces|cho- ses|
 z ^B ^c c ^d d | ^B3 ^c ^d d | e e!>(! ^f3!>)! g |!p! z"^ému" A/ A/ A A/ A/ d2- | %22
w: car c'é- tait au mi-|lieu des ver- gers|blancs et ro- ses|Que j'a- vais es- pé- ré|
 d3/2 d/ d/ d/!>(! d/ c/ _e2-!>)! | _e z z2[Q:1/4=100] z2 | %24
w: _ je ne sais quoi de vous|_|
[Q:1/4=90]"^Plus lent"!p! z"^grave" c c3 c | d3 d !tenuto!c d | _e3!<(! c- (3c e!<)! f | %27
w: Mon â- me|rê- ve sour- de-|ment sur _ vos ge-|
!pp! ^f4- f z | z6 | z"^contenu et ardent" (^G !tenuto!B B!<(! !tenuto!G B!<)! | =d6) | %31
w: \- noux _||Ne la re- pous- sez|point|
 z (^G ^c B ^A G | ^f4)"^cédez"[Q:1/4=80] (_d2 |[Q:1/4=90]"^a tempo" _A3 A _c __B | %34
w: Ne la re- le- vez|pas, de|peur qu'en s'é- loi-|
 _A _G F2) (3(=D F =G | (_A4)!pp!{/A)} (A2 || %36
w: gnant de vous el- le ne|voi- e   com -|
[M:4/4]"^sans rigueur, mais bien mesuré"[Q:1/4=85] _d2- d/ d/ !tenuto!_c/ __B/ !tenuto!_A2 A) (A/ A/ | %37
w: \- bien _ vous ê- tes fai- ble et trou-|
 !tenuto!_e3 _d) z (_f2 _g ||[M:3/4] _a6-)[Q:1/4=80] |[Q:1/4=75] a6- | a2- a z z2 | z6 | z6 | z6 |] %44
w: blé- e dans ses|bras|_|||||
V:2
 x8 | x8 | x8 | x8 | x8 | x8 | x8 | x8 | x8 | x8 | x8 | x!>(! x x"^rit." x x4!>)! | x8 | x8 || %14
[M:3/4] x6 | x6 | x6 | x6 | x6 | x2!<(! x x x2 | x!<)! x5 | x6 | x6 | x6 | x6 | x6 | x6 | x6 | x6 | %29
 x6 | x6 | x6 | x6 | x6 | x6 | x6 ||[M:4/4] x8 | x4 x (_c2 __B ||[M:3/4] _A6-) | A6- | A2- A x x2 | %41
 x6 | x6 | x6 |] %44

